X:4
T:The Back Eyed Milkmaid
%%VWML:RutherfordSelect-4785-p4-0
F:http://www.vwml.org/record/RutherfordSelect/4785/p4
Z:Transcribed by David Jacobs February 2016
S:12 Selected Country Dances 1772, John Rutherford
L:1/8
M:C|
K:G
V:1     clef=treble
V:2     clef=bass
V:1 
g|GBdB G(B/c/) dB|cfBd c A2c|G(B/c/) dB gdBG|ceAc B(GG):|
f|gdBg dgdB|gefg aA2f|gdBg dgdB|cA Dc B(GG):|
V:2
z|G,2G,2G,,2,G,,2|"6"A,2G,2D,2"6"F,2|G,2G,2G,,2G,2|C2D2G,3:|
z|G,2G,2G,,2G,2|E,2E,2D,2D,2|G,2G,2G,,2G,2|"7"D,2D,,2G,,3:|
W:
W:Cast off one Cu. Hands round four with the 3rd Cu.|
W:Cast up and hands round with the 2nd Cu. .|.
W:Cross over one Cu and turn :|.
W:Right and left at top :|:

